Numix/scalable/actions/format-text-remove-formatting-symbolic.svg

<?xml version="1.0" encoding="UTF-8" standalone="no"?>
<svg
   xmlns:dc="http://purl.org/dc/elements/1.1/"
   xmlns:cc="http://creativecommons.org/ns#"
   xmlns:rdf="http://www.w3.org/1999/02/22-rdf-syntax-ns#"
   xmlns:svg="http://www.w3.org/2000/svg"
   xmlns="http://www.w3.org/2000/svg"
   xmlns:sodipodi="http://sodipodi.sourceforge.net/DTD/sodipodi-0.dtd"
   xmlns:inkscape="http://www.inkscape.org/namespaces/inkscape"
   viewBox="0 0 16 16"
   id="svg3752"
   version="1.1"
   inkscape:version="0.91 r"
   sodipodi:docname="format-text-remove-formatting-symbolic.svg">
  <metadata
     id="metadata3766">
    <rdf:RDF>
      <cc:Work
         rdf:about="">
        <dc:format>image/svg+xml</dc:format>
        <dc:type
           rdf:resource="http://purl.org/dc/dcmitype/StillImage" />
        <dc:title />
      </cc:Work>
    </rdf:RDF>
  </metadata>
  <defs
     id="defs3764" />
  <sodipodi:namedview
     pagecolor="#ffffff"
     bordercolor="#666666"
     borderopacity="1"
     objecttolerance="10"
     gridtolerance="10"
     guidetolerance="10"
     inkscape:pageopacity="0"
     inkscape:pageshadow="2"
     inkscape:window-width="929"
     inkscape:window-height="480"
     id="namedview3762"
     showgrid="true"
     inkscape:zoom="7.375"
     inkscape:cx="6.7862743"
     inkscape:cy="2.3779832"
     inkscape:window-x="10"
     inkscape:window-y="34"
     inkscape:window-maximized="0"
     inkscape:current-layer="svg3752"
     showguides="true">
    <inkscape:grid
       type="xygrid"
       id="grid4139" />
  </sodipodi:namedview>
  <path
     style="color:#000000;line-height:normal;fill:#bebebe"
     d="M 5.828125 3 L 7.828125 5 L 10 5 C 10.42816 5 11 5.61414 11 6 L 11 7 L 9.828125 7 L 13 10.171875 L 13 6 C 13 4.36566 11.6802 3 10 3 L 5.828125 3 z M 4.5410156 7.3691406 C 4.2378613 7.5295466 3.9634202 7.7261256 3.75 7.96875 C 3.2356 8.55354 2.99361 9.27938 3 10 C 3.006 10.72062 3.26893 11.45271 3.78125 12.03125 C 4.29357 12.60979 5.09172 13 6 13 L 10.171875 13 L 8.171875 11 L 6 11 C 5.60213 11 5.43309 10.89021 5.28125 10.71875 C 5.12941 10.54729 5.00248 10.27938 5 10 C 4.998 9.72062 5.10467 9.44646 5.25 9.28125 C 5.39533 9.11604 5.57764 9 6 9 L 6.171875 9 L 4.5410156 7.3691406 z "
     id="path3756" />
  <rect
     style="opacity:1;fill:#bebebe;fill-opacity:1;fill-rule:nonzero;stroke:none;stroke-width:2;stroke-linecap:square;stroke-linejoin:miter;stroke-miterlimit:4;stroke-dasharray:none;stroke-dashoffset:0;stroke-opacity:1"
     id="rect4141"
     width="2"
     height="18"
     x="-1"
     y="2.3137083"
     transform="matrix(0.70710678,-0.70710678,0.70710678,0.70710678,0,0)" />
</svg>

<svg xmlns="http://www.w3.org/2000/svg" viewBox="0 0 16 16">
 <path d="m 5.828 3 l 2 2 l 2.172 0 c 0.428 0 1 0.614 1 1 l 0 1 l -1.172 0 l 3.172 3.172 l 0 -4.172 c 0 -1.634 -1.32 -3 -3 -3 l -4.172 0 z m -1.287 4.369 c -0.303 0.16 -0.578 0.357 -0.791 0.6 c -0.514 0.585 -0.756 1.311 -0.75 2.031 c 0.006 0.721 0.269 1.453 0.781 2.031 c 0.512 0.579 1.31 0.969 2.219 0.969 l 4.172 0 l -2 -2 l -2.172 0 c -0.398 0 -0.567 -0.11 -0.719 -0.281 c -0.152 -0.171 -0.279 -0.439 -0.281 -0.719 c -0.002 -0.279 0.105 -0.554 0.25 -0.719 c 0.145 -0.165 0.328 -0.281 0.75 -0.281 l 0.172 0 l -1.631 -1.631 z" style="fill:#bebebe;color:#000"/>
 <rect width="2" height="18" x="-1" y="2.314" transform="matrix(0.70710678,-0.70710678,0.70710678,0.70710678,0,0)" style="fill:#bebebe;opacity:1;fill-opacity:1;stroke:none;fill-rule:nonzero"/>
</svg>
